pics/twitter_round_full.svg

<svg width="144" height="144" viewBox="0 0 144 144" fill="none" xmlns="http://www.w3.org/2000/svg">
<path d="M71.9984 14.165C40.0768 14.165 14.1987 40.059 14.1987 71.999C14.1987 103.938 40.0768 129.835 71.9984 129.835C103.921 129.835 129.8 103.939 129.8 71.999C129.8 40.059 103.921 14.165 71.9984 14.165ZM100.214 57.631C100.214 57.631 101.588 64.446 96.6572 76.418C91.7241 88.39 79.5171 99.715 62.7028 100.767C45.8875 101.818 36.8307 94.376 36.8307 94.376C49.4434 95.347 55.0212 90.17 58.0125 88.471C46.2902 86.934 44.5922 78.117 44.5922 78.117C45.7236 78.603 49.1996 78.441 51.0595 77.956C39.5811 75.125 39.3382 63.558 39.3382 63.558C39.3382 63.558 43.6218 65.742 46.0474 65.337C34.9708 56.924 41.44 45.923 41.44 45.923C56.0726 61.94 71.5937 61.05 71.5937 61.05L71.6636 61.155C71.3818 60.027 71.2299 58.847 71.2299 57.632C71.2299 49.624 77.7181 43.133 85.7215 43.133C89.9491 43.133 93.7539 44.946 96.4034 47.836L96.4953 47.784C101.668 47.46 105.469 44.71 105.469 44.71C103.894 49.314 100.548 51.459 99.1508 52.181C99.1688 52.224 99.1858 52.267 99.2018 52.309C101.01 51.871 105.86 50.684 107.168 50.292C104.337 55.468 100.214 57.631 100.214 57.631Z" fill="#FDEF9C"/>
</svg>

<?xml version="1.0" encoding="UTF-8"?>
<!DOCTYPE svg PUBLIC "-//W3C//DTD SVG 1.1//EN" "http://www.w3.org/Graphics/SVG/1.1/DTD/svg11.dtd">
<svg xmlns="http://www.w3.org/2000/svg" xmlns:xlink="http://www.w3.org/1999/xlink" version="1.1" id="Twitter" x="0px" y="0px" width="144.083px" height="144px" viewBox="0 0 144.083 144" enable-background="new 0 0 144.083 144" xml:space="preserve">
<path d="M72.04,14.165c-31.94,0-57.833,25.894-57.833,57.834c0,31.939,25.893,57.836,57.833,57.836  c31.941,0,57.835-25.896,57.835-57.836C129.875,40.059,103.981,14.165,72.04,14.165z M100.272,57.631c0,0,1.375,6.815-3.559,18.787  c-4.936,11.972-17.15,23.297-33.974,24.349c-16.825,1.051-25.887-6.391-25.887-6.391c12.62,0.971,18.201-4.206,21.194-5.905  c-11.729-1.537-13.428-10.354-13.428-10.354c1.132,0.486,4.61,0.324,6.471-0.161c-11.485-2.831-11.728-14.398-11.728-14.398  s4.286,2.184,6.713,1.779c-11.083-8.413-4.61-19.414-4.61-19.414c14.641,16.017,30.171,15.127,30.171,15.127l0.07,0.105  c-0.282-1.128-0.434-2.308-0.434-3.523c0-8.008,6.492-14.499,14.5-14.499c4.23,0,8.037,1.813,10.688,4.703l0.092-0.052  c5.176-0.324,8.979-3.074,8.979-3.074c-1.576,4.604-4.924,6.749-6.322,7.471c0.018,0.043,0.035,0.086,0.051,0.128  c1.809-0.438,6.662-1.625,7.971-2.017C104.397,55.468,100.272,57.631,100.272,57.631z"/>

	
	
	
	<metadata>
		<rdf:RDF xmlns:rdf="http://www.w3.org/1999/02/22-rdf-syntax-ns#" xmlns:rdfs="http://www.w3.org/2000/01/rdf-schema#" xmlns:dc="http://purl.org/dc/elements/1.1/">
			<rdf:Description about="https://iconscout.com/legal#licenses" dc:title="Twitter" dc:description="Twitter" dc:publisher="Iconscout" dc:date="2017-03-22" dc:format="image/svg+xml" dc:language="en">
				<dc:creator>
					<rdf:Bag>
						<rdf:li/>
					</rdf:Bag>
				</dc:creator>
			</rdf:Description>
		</rdf:RDF>
    </metadata></svg>
